X: 36588
T: Shake The Rafters
R: reel
M: 4/4
K: Gmajor
|:B2BA GABd|A3G FGAF|GDAD BDAG|Fded cdBA|
B2BA GABd|A3G FGAF|GEAE BEAG|FDEF E4:|
|:B2BA Bdgb|a3g fg/f/ed|cddd Bddd|AdGd FABc|
B2BA GABd|A3G FGAF|GEAE BEAG|FDEF E4:|

